icons/outline/adjustments-code.svg

<!--
category: System
tags: [settings, program, develop, script, software, cypher, encrypt, decode, compile, syntax]
version: "2.10"
unicode: "f7fe"
-->
<svg
  xmlns="http://www.w3.org/2000/svg"
  width="24"
  height="24"
  viewBox="0 0 24 24"
  fill="none"
  stroke="currentColor"
  stroke-width="2"
  stroke-linecap="round"
  stroke-linejoin="round"
>
  <path d="M4 10a2 2 0 1 0 4 0a2 2 0 0 0 -4 0m2 -6v4m0 4v8m7.557 -5.255a2 2 0 1 0 -1.557 3.255m0 -14v10m0 4v2m4 -13a2 2 0 1 0 4 0a2 2 0 0 0 -4 0m2 -3v1m0 4v4m2 8l2 -2l-2 -2m-3 0l-2 2l2 2" />
</svg>

<!--
category: System
tags: [settings, program, develop, script, software, cypher, encrypt, decode, compile, syntax]
version: "2.10"
unicode: "f7fe"
-->
<svg
  xmlns="http://www.w3.org/2000/svg"
  width="24"
  height="24"
  viewBox="0 0 24 24"
  fill="none"
  stroke="currentColor"
  stroke-width="2"
  stroke-linecap="round"
  stroke-linejoin="round"
>
    <path d="M4 10a2 2 0 1 0 4 0a2 2 0 0 0 -4 0M6 4v4M6 12v8M13.557 14.745a2 2 0 1 0 -1.557 3.255M12 4v10M12 18v2M16 7a2 2 0 1 0 4 0a2 2 0 0 0 -4 0M18 4v1M18 9v4M20 21l2 -2l-2 -2M17 17l-2 2l2 2" />
</svg>
